source/img/services/services-nav/strategy-icon-active.svg

<svg width="32" height="32" viewBox="0 0 32 32" fill="none" xmlns="http://www.w3.org/2000/svg">
<path d="M15.1174 16.6065C15.1174 18.2278 13.803 19.5422 12.1817 19.5422C10.5604 19.5422 9.24609 18.2278 9.24609 16.6065C9.24609 14.9852 10.5604 13.6709 12.1817 13.6709C13.803 13.6709 15.1174 14.9852 15.1174 16.6065Z" fill="url(#paint0_linear)"/>
<path d="M21.5216 16.6068C21.5216 21.7655 17.3397 25.9474 12.181 25.9474C7.02228 25.9474 2.84033 21.7655 2.84033 16.6068C2.84033 11.4481 7.02228 7.26611 12.181 7.26611C17.3397 7.26611 21.5216 11.4481 21.5216 16.6068ZM4.98868 16.6068C4.98868 20.579 8.20878 23.7991 12.181 23.7991C16.1532 23.7991 19.3733 20.579 19.3733 16.6068C19.3733 12.6346 16.1532 9.41446 12.181 9.41446C8.20878 9.41446 4.98868 12.6346 4.98868 16.6068Z" fill="url(#paint1_linear)"/>
<path fill-rule="evenodd" clip-rule="evenodd" d="M12.1814 7.66635C7.24378 7.66635 3.24106 11.6691 3.24106 16.6067C3.24106 21.5443 7.24378 25.547 12.1814 25.547C17.119 25.547 21.1217 21.5443 21.1217 16.6067C21.1217 13.1423 19.1513 10.1374 16.2681 8.65288C16.0716 8.55167 15.9943 8.31028 16.0955 8.11372C16.1967 7.91715 16.4381 7.83986 16.6347 7.94106C19.7739 9.55745 21.9224 12.8308 21.9224 16.6067C21.9224 21.9865 17.5612 26.3476 12.1814 26.3476C6.80161 26.3476 2.44043 21.9865 2.44043 16.6067C2.44043 11.2269 6.80161 6.86572 12.1814 6.86572C12.4025 6.86572 12.5817 7.04495 12.5817 7.26604C12.5817 7.48712 12.4025 7.66635 12.1814 7.66635Z" fill="#0A3D76"/>
<path fill-rule="evenodd" clip-rule="evenodd" d="M12.1816 23.4123C8.42316 23.4123 5.37631 20.3654 5.37631 16.6069C5.37631 12.8485 8.42316 9.80161 12.1816 9.80161C15.9401 9.80161 18.987 12.8485 18.987 16.6069C18.987 19.2439 17.4873 21.5313 15.2924 22.6614C15.0958 22.7626 15.0185 23.004 15.1197 23.2005C15.221 23.3971 15.4623 23.4744 15.6589 23.3732C18.1099 22.1112 19.7876 19.5553 19.7876 16.6069C19.7876 12.4063 16.3823 9.00098 12.1816 9.00098C7.98099 9.00098 4.57568 12.4063 4.57568 16.6069C4.57568 20.8076 7.98099 24.2129 12.1816 24.2129C12.4027 24.2129 12.582 24.0337 12.582 23.8126C12.582 23.5915 12.4027 23.4123 12.1816 23.4123Z" fill="#0A3D76"/>
<path fill-rule="evenodd" clip-rule="evenodd" d="M7.70852 15.409C8.37039 12.9388 10.9094 11.4729 13.3795 12.1348C15.8497 12.7967 17.3156 15.3357 16.6537 17.8058C15.9918 20.276 13.4528 21.7419 10.9827 21.08C9.24981 20.6157 8.01046 19.2274 7.65416 17.5856C7.60727 17.3695 7.39411 17.2324 7.17806 17.2792C6.962 17.3261 6.82486 17.5393 6.87174 17.7553C7.28913 19.6787 8.74176 21.3084 10.7755 21.8533C13.6727 22.6297 16.6507 20.9103 17.4271 18.0131C18.2034 15.1158 16.484 12.1378 13.5868 11.3615C10.6895 10.5851 7.71149 12.3045 6.93517 15.2018C6.87795 15.4153 7.00468 15.6348 7.21824 15.692C7.43179 15.7493 7.6513 15.6225 7.70852 15.409Z" fill="#0A3D76"/>
<path fill-rule="evenodd" clip-rule="evenodd" d="M14.6366 15.9493C14.2733 14.5935 12.8797 13.789 11.524 14.1522C10.1683 14.5155 9.36371 15.909 9.72698 17.2648C10.0902 18.6205 11.4838 19.4251 12.8395 19.0618C13.7904 18.807 14.4708 18.0454 14.6665 17.1437C14.7133 16.9277 14.9265 16.7905 15.1426 16.8374C15.3586 16.8843 15.4958 17.0975 15.4489 17.3135C15.1921 18.4967 14.2984 19.4998 13.0467 19.8352C11.2639 20.3129 9.43135 19.2548 8.95363 17.472C8.47592 15.6891 9.53394 13.8566 11.3168 13.3789C13.0996 12.9012 14.9322 13.9592 15.4099 15.742C15.4671 15.9556 15.3404 16.1751 15.1268 16.2323C14.9133 16.2896 14.6938 16.1628 14.6366 15.9493Z" fill="#0A3D76"/>
<path fill-rule="evenodd" clip-rule="evenodd" d="M14.4357 16.725C14.4526 16.5046 14.2876 16.3122 14.0671 16.2954L13.4886 16.2511L24.622 9.82321L26.2295 10.0169C26.449 10.0433 26.6484 9.88682 26.6748 9.66733C26.7013 9.44783 26.5448 9.24845 26.3253 9.222L25.7776 9.15602L25.988 9.03456L27.5955 9.22823C27.815 9.25467 28.0144 9.09817 28.0408 8.87867C28.0673 8.65917 27.9108 8.45979 27.6913 8.43335L27.1436 8.36737L27.354 8.2459L28.9615 8.43958C29.181 8.46602 29.3803 8.30952 29.4068 8.09002C29.4332 7.87052 29.2767 7.67114 29.0572 7.6447L27.8472 7.49891L28.326 6.37807C28.4128 6.17476 28.3184 5.93953 28.1151 5.85269C27.9118 5.76584 27.6765 5.86026 27.5897 6.06357L26.9537 7.55254L26.7433 7.674L26.96 7.16673C27.0468 6.96341 26.9524 6.72819 26.7491 6.64134C26.5458 6.55449 26.3105 6.64891 26.2237 6.85222L25.5877 8.34119L25.3773 8.46266L25.594 7.95538C25.6808 7.75206 25.5864 7.51684 25.3831 7.42999C25.1798 7.34314 24.9446 7.43756 24.8577 7.64088L24.2217 9.12985L13.08 15.5625L13.3418 15.0107C13.4365 14.811 13.3514 14.5722 13.1517 14.4775C12.9519 14.3827 12.7132 14.4678 12.6184 14.6675L11.806 16.3799C11.7495 16.499 11.7552 16.6383 11.8214 16.7524C11.8876 16.8664 12.0056 16.9406 12.1371 16.9506L14.006 17.0936C14.2265 17.1105 14.4189 16.9455 14.4357 16.725Z" fill="#0A3D76"/>
<defs>
<linearGradient id="paint0_linear" x1="14.9364" y1="16.6065" x2="9.41982" y2="16.4881" gradientUnits="userSpaceOnUse">
<stop stop-color="#A62E41"/>
<stop offset="1" stop-color="#E13152"/>
</linearGradient>
<linearGradient id="paint1_linear" x1="20.9458" y1="16.6068" x2="3.39311" y2="16.2299" gradientUnits="userSpaceOnUse">
<stop stop-color="#A62E41"/>
<stop offset="1" stop-color="#E13152"/>
</linearGradient>
</defs>
</svg>

<svg width="32" height="32" fill="none" xmlns="http://www.w3.org/2000/svg"><path d="M15.117 16.607a2.936 2.936 0 11-5.871 0 2.936 2.936 0 015.871 0z" fill="url(#paint0_linear)"/><path d="M21.522 16.607a9.34 9.34 0 11-18.681 0 9.34 9.34 0 0118.68 0zm-16.533 0a7.192 7.192 0 1014.384 0 7.192 7.192 0 00-14.384 0z" fill="url(#paint1_linear)"/><path fill-rule="evenodd" clip-rule="evenodd" d="M12.181 7.666a8.94 8.94 0 104.087.987.4.4 0 01.367-.712 9.74 9.74 0 015.287 8.666c0 5.38-4.36 9.74-9.74 9.74s-9.742-4.36-9.742-9.74 4.362-9.741 9.741-9.741a.4.4 0 110 .8z" fill="#0A3D76"/><path fill-rule="evenodd" clip-rule="evenodd" d="M12.182 23.412a6.805 6.805 0 113.11-.75.4.4 0 10.367.711 7.606 7.606 0 10-3.477.84.4.4 0 100-.8z" fill="#0A3D76"/><path fill-rule="evenodd" clip-rule="evenodd" d="M7.709 15.409a4.63 4.63 0 11-.055 2.177.4.4 0 00-.782.17 5.431 5.431 0 10.063-2.553.4.4 0 00.774.206z" fill="#0A3D76"/><path fill-rule="evenodd" clip-rule="evenodd" d="M14.637 15.95a2.542 2.542 0 10.03 1.194.4.4 0 11.782.17 3.342 3.342 0 11-.04-1.572.4.4 0 01-.772.207z" fill="#0A3D76"/><path fill-rule="evenodd" clip-rule="evenodd" d="M14.436 16.725a.4.4 0 00-.369-.43l-.578-.044 11.133-6.428 1.608.194a.4.4 0 00.095-.795l-.547-.066.21-.121 1.608.193a.4.4 0 10.095-.795l-.547-.066.21-.121 1.608.194a.4.4 0 00.095-.795l-1.21-.146.479-1.12a.4.4 0 00-.736-.315l-.636 1.489-.21.121.216-.507a.4.4 0 00-.736-.315l-.636 1.49-.21.12.216-.507a.4.4 0 00-.736-.314l-.636 1.489-11.142 6.432.262-.551a.4.4 0 00-.724-.343l-.812 1.712a.4.4 0 00.331.57l1.869.144a.4.4 0 00.43-.369z" fill="#0A3D76"/><defs><linearGradient id="paint0_linear" x1="14.936" y1="16.607" x2="9.42" y2="16.488" gradientUnits="userSpaceOnUse"><stop stop-color="#A62E41"/><stop offset="1" stop-color="#E13152"/></linearGradient><linearGradient id="paint1_linear" x1="20.946" y1="16.607" x2="3.393" y2="16.23" gradientUnits="userSpaceOnUse"><stop stop-color="#A62E41"/><stop offset="1" stop-color="#E13152"/></linearGradient></defs></svg>
